X:2492
T:Harvest Home Hornpipe
O:england
M:2/2
L:1/8
S:Armitt MS
K:D major
(FE)|DAFA DAFA|defe dcBA|eAfB gBfB|edcB AGFE|DAFA DAFA|defe dcBA|eAfB gB
e
c|d2g2d2:||:f2|eAAA fBBB|gBBB aBBB|eAfB gBfB|edcB AGFE|Addd cdec|Addd cd
ec|dfed cABc ||


